X:1
T:Miss Shepherd's Reel
R:Reel
%%printtempo 0
Q:180
M:C|
K:Am
"Am"A,B,CD E2 DC|"G"B,G^FG DB,G,B,|"Am"A,B,CD EGAc|"Em"BAGB "Am"Bc A2|
"Am"A,B,CD E2 DC|"G"B,G^FG DB,G,B,|"Am"A,B,CD EGAc|"Em"BAGB "Am"Bc A2:|
|:"A"^gaed ^cBA^F|"G"=GED=C B,A,G,2|"A"^gaed ^cBA^F|"Em"=GABd "A"^cAA2|
"A"^gaed ^cBA^F|"G"=GED=C B,A,G,B,|"Am"A,B,CD EGAc|"Em"BAGB "Am"BcA2:|
